src/pentobi/icons/pentobi-rated-game.svg

<?xml version="1.0" encoding="UTF-8" standalone="no"?>
<svg xmlns:rdf="http://www.w3.org/1999/02/22-rdf-syntax-ns#" xmlns="http://www.w3.org/2000/svg" height="22" width="22" version="1.1" xmlns:cc="http://creativecommons.org/ns#" xmlns:xlink="http://www.w3.org/1999/xlink" xmlns:dc="http://purl.org/dc/elements/1.1/">
<defs>
<linearGradient id="a">
<stop stop-color="#c4a000" offset="0"/>
<stop stop-color="#e7bd00" offset="1"/>
</linearGradient>
<linearGradient id="b">
<stop stop-color="#babdb6" offset="0"/>
<stop stop-color="#e7e8e5" offset="1"/>
</linearGradient>
<linearGradient id="h" y2="17.64" gradientUnits="userSpaceOnUse" x2="-11.168" gradientTransform="matrix(1.109036 0 0 1.11584 23.15355 -2.399504)" y1="13.159" x1="-11.088">
<stop stop-color="#fce94f" offset="0"/>
<stop stop-color="#fefad8" offset=".5"/>
<stop stop-color="#fce94f" offset="1"/>
</linearGradient>
<linearGradient id="g" y2="24.326" xlink:href="#a" gradientUnits="userSpaceOnUse" x2="-8.6418" gradientTransform="matrix(1.109036 0 0 1.11584 23.15355 -2.399504)" y1="10.868" x1="-13.076"/>
<linearGradient id="f" y2="24.147" xlink:href="#a" gradientUnits="userSpaceOnUse" x2="-11.921" gradientTransform="matrix(1.978749 0 0 1.978644 36.39859 -23.66898)" y1="16.837" x1="-13.778"/>
<linearGradient id="e" y2="9.5196" xlink:href="#b" gradientUnits="userSpaceOnUse" x2="1.814" gradientTransform="translate(0,-10)" y1="18.518" x1="6.8535"/>
<linearGradient id="d" y2="11.708" xlink:href="#b" gradientUnits="userSpaceOnUse" x2="7.2001" gradientTransform="translate(0,-10)" y1="21.128" x1="13.585"/>
<linearGradient id="c" y2="11.696" gradientUnits="userSpaceOnUse" x2="10.706" gradientTransform="matrix(.7643143 0 0 .9910298 2.392023 .03175332)" y1=".4165" x1="10.417">
<stop stop-color="#888a85" offset="0"/>
<stop stop-color="#aeafac" offset="1"/>
</linearGradient>
</defs>
<g>
<g stroke-linejoin="round">
<g>
<path d="m2.8984 0.49023 15.8446 0.04056-1.264 2.95911-13.4261 0.05z" fill-rule="evenodd" stroke="url(#c)" stroke-linecap="round" fill="#babdb6"/>
<path d="m15.924 12.753 4.792-10.7994-0.716-1.42366-3.183-0.0276-5.274 12.16966z" stroke="#888a85" fill="url(#d)"/>
<path opacity="0.99" d="m6.3294 12.946-4.8456-10.9339 0.5162-1.50999 3.4004 0.0276 5.3536 12.33429z" stroke="#888a85" fill="url(#e)"/>
</g>
<path d="m17.5 15.051a6.4998 6.4995 0 1 1 -0.0171 -0.52474" fill-rule="evenodd" stroke="url(#f)" stroke-linecap="round" fill="#edd400"/>
</g>
<path d="m15.5 15.008a4.5002 4.5278 0 1 1 -0.01183 -0.36555" fill-rule="evenodd" stroke="url(#g)" stroke-linecap="round" stroke-width=".9999999" fill="url(#h)"/>
</g>
</svg>

<?xml version="1.0" encoding="UTF-8" standalone="no"?>
<svg xmlns:rdf="http://www.w3.org/1999/02/22-rdf-syntax-ns#" xmlns="http://www.w3.org/2000/svg" height="22" width="22" version="1.1" xmlns:cc="http://creativecommons.org/ns#" xmlns:xlink="http://www.w3.org/1999/xlink" xmlns:dc="http://purl.org/dc/elements/1.1/">
<defs>
<linearGradient id="linearGradient3963">
<stop stop-color="#c4a000" offset="0"/>
<stop stop-color="#e7bd00" offset="1"/>
</linearGradient>
<linearGradient id="linearGradient3939">
<stop stop-color="#babdb6" offset="0"/>
<stop stop-color="#e7e8e5" offset="1"/>
</linearGradient>
<linearGradient id="linearGradient3007" x1="-11.088" gradientUnits="userSpaceOnUse" y1="13.159" gradientTransform="matrix(1.1090363,0,0,1.1158401,23.15355,-2.3995036)" x2="-11.168" y2="17.64">
<stop stop-color="#fce94f" offset="0"/>
<stop stop-color="#fefad8" offset="0.5"/>
<stop stop-color="#fce94f" offset="1"/>
</linearGradient>
<linearGradient id="linearGradient3009" x1="-13.076" xlink:href="#linearGradient3963" gradientUnits="userSpaceOnUse" y1="10.868" gradientTransform="matrix(1.1090363,0,0,1.1158401,23.15355,-2.3995036)" x2="-8.6418" y2="24.326"/>
<linearGradient id="linearGradient3012" x1="-13.778" xlink:href="#linearGradient3963" gradientUnits="userSpaceOnUse" y1="16.837" gradientTransform="matrix(1.9787486,0,0,1.9786444,36.398593,-23.668975)" x2="-11.921" y2="24.147"/>
<linearGradient id="linearGradient3015" x1="6.8535" xlink:href="#linearGradient3939" gradientUnits="userSpaceOnUse" y1="18.518" gradientTransform="translate(0,-10)" x2="1.814" y2="9.5196"/>
<linearGradient id="linearGradient3021" x1="13.585" xlink:href="#linearGradient3939" gradientUnits="userSpaceOnUse" y1="21.128" gradientTransform="translate(0,-10)" x2="7.2001" y2="11.708"/>
<linearGradient id="linearGradient3776" x1="10.417" gradientUnits="userSpaceOnUse" y1="0.4165" gradientTransform="matrix(0.76431426,0,0,0.99102983,2.3920227,0.03175332)" x2="10.706" y2="11.696">
<stop stop-color="#888a85" offset="0"/>
<stop stop-color="#aeafac" offset="1"/>
</linearGradient>
</defs>
<metadata>
<rdf:RDF>
<cc:Work rdf:about="">
<dc:format>image/svg+xml</dc:format>
<dc:type rdf:resource="http://purl.org/dc/dcmitype/StillImage"/>
<dc:title/>
</cc:Work>
</rdf:RDF>
</metadata>
<path stroke-linejoin="round" d="M2.8984,0.49023,18.743,0.53079,17.479,3.4899,4.0529,3.5399z" fill-rule="evenodd" stroke="url(#linearGradient3776)" stroke-linecap="round" stroke-miterlimit="4" stroke-dasharray="none" stroke-width="1" fill="#babdb6"/>
<path stroke-linejoin="round" d="M15.924,12.753,20.716,1.9536,20,0.52994,16.817,0.50234,11.543,12.672z" stroke="#888a85" stroke-linecap="butt" stroke-miterlimit="4" stroke-dasharray="none" stroke-width="1" fill="url(#linearGradient3021)"/>
<path opacity="0.98999999" stroke-linejoin="round" d="M6.3294,12.946,1.4838,2.0121,2,0.50211,5.4004,0.52971,10.754,12.864z" stroke="#888a85" stroke-linecap="butt" stroke-miterlimit="4" stroke-dasharray="none" stroke-width="1" fill="url(#linearGradient3015)"/>
<path stroke-linejoin="round" d="m17.5,15.051a6.4998,6.4995,0,1,1,-0.0171,-0.52474" fill-rule="evenodd" stroke="url(#linearGradient3012)" stroke-linecap="round" stroke-miterlimit="4" stroke-dasharray="none" stroke-width="1.00000012" fill="#edd400"/>
<path stroke-linejoin="miter" d="m15.5,15.008a4.5002,4.5278,0,1,1,-0.01183,-0.36555" fill-rule="evenodd" stroke="url(#linearGradient3009)" stroke-linecap="round" stroke-miterlimit="4" stroke-dasharray="none" stroke-width="0.99999994" fill="url(#linearGradient3007)"/>
</svg>
